svg/skate_off.svg

<svg xmlns="http://www.w3.org/2000/svg" viewBox="0 0 24 24"><path d="m19 15.81-5.64-5.65c1.86.46 4.27.89 5.17 2.79.42.62.47 1.76.47 2.86M20.95 17q-.045.315-.15.6l1.52 1.52c.36-.62.6-1.35.68-2.12zM10.5 7V6H9.2l1 1zm11.61 14.46-1.27 1.27-1.18-1.18c-.66.28-1.39.45-2.16.45H1v-2h4v-2H2.03V3.92L1.11 3l.92-.91V2h.09l.27-.27zM14 18H7v2h7zm4.06 1.95L16.11 18H16v2h1.5c.19 0 .38 0 .56-.05M10.5 5V2H5.2l3 3z"/></svg>

<svg xmlns="http://www.w3.org/2000/svg" id="mdi-skate-off" viewBox="0 0 24 24"><path d="M19 15.81L13.36 10.16C15.22 10.62 17.63 11.05 18.53 12.95C18.95 13.57 19 14.71 19 15.81M20.95 17C20.92 17.21 20.87 17.41 20.8 17.6L22.32 19.12C22.68 18.5 22.92 17.77 23 17H20.95M10.5 7V6H9.2L10.2 7H10.5M22.11 21.46L20.84 22.73L19.66 21.55C19 21.83 18.27 22 17.5 22H1V20H5V18H2.03V3.92L1.11 3L2.03 2.09V2H2.12L2.39 1.73L22.11 21.46M14 18H7V20H14V18M18.06 19.95L16.11 18H16V20H17.5C17.69 20 17.88 20 18.06 19.95M10.5 5V2H5.2L8.2 5H10.5Z" /></svg>
